packages/kaspersky-hexa-ui-icons/src/iconsSVGs/16/YandexColor.svg

<svg width="16" height="16" viewBox="0 0 16 16" fill="none" xmlns="http://www.w3.org/2000/svg">
<path fill-rule="evenodd" clip-rule="evenodd" d="M15 8C15 11.866 11.866 15 8 15C4.13401 15 1 11.866 1 8C1 4.13401 4.13401 1 8 1C11.866 1 15 4.13401 15 8ZM8.9963 12.3944H10.5329V12.3918H10.5226V3.60442H8.30136C6.07108 3.60442 4.89294 4.75398 4.89294 6.4439C4.89294 7.7961 5.53981 8.59755 6.68938 9.41848L4.69031 12.3931H6.34256L8.56375 9.06127L7.79088 8.54039C6.85304 7.913 6.39971 7.42071 6.39971 6.35817C6.39971 5.42163 7.05698 4.79425 8.31176 4.79425H8.9963V12.3944Z" fill="#FC3F1D"/>
<path fill-rule="evenodd" clip-rule="evenodd" d="M8.9963 12.3944H10.5329V12.3918H10.5226V3.60442H8.30136C6.07108 3.60442 4.89294 4.75398 4.89294 6.4439C4.89294 7.7961 5.53981 8.59755 6.68938 9.41848L4.69031 12.3931H6.34256L8.56375 9.06127L7.79088 8.54039C6.85304 7.913 6.39971 7.42071 6.39971 6.35817C6.39971 5.42163 7.05698 4.79425 8.31176 4.79425H8.9963V12.3944Z" fill="white"/>
</svg>

<svg xmlns="http://www.w3.org/2000/svg" width="16" height="16" fill="none" viewBox="0 0 16 16"><path fill="#fc3f1d" fill-rule="evenodd" d="M15 8c0 3.866-3.134 7-7 7s-7-3.134-7-7 3.134-7 7-7 7 3.134 7 7m-6.0037 4.3944h1.5366v-.0026h-.0103V3.6044H8.3014c-2.2303 0-3.4085 1.1496-3.4085 2.8395 0 1.3522.647 2.1537 1.7965 2.9746l-1.999 2.9746h1.6522l2.2212-3.3318-.773-.521c-.9378-.6273-1.391-1.1196-1.391-2.1821 0-.9366.6572-1.564 1.912-1.564h.6845z" clip-rule="evenodd"/><path fill="#fff" fill-rule="evenodd" d="M8.9963 12.3944h1.5366v-.0026h-.0103V3.6044H8.3014c-2.2303 0-3.4085 1.1496-3.4085 2.8395 0 1.3522.647 2.1537 1.7965 2.9746l-1.999 2.9746h1.6522l2.2212-3.3318-.773-.521c-.9378-.6273-1.391-1.1196-1.391-2.1821 0-.9366.6572-1.564 1.912-1.564h.6845z" clip-rule="evenodd"/></svg>
